public/icons/blue-support.svg

<svg width="56" height="56" viewBox="0 0 56 56" fill="none" xmlns="http://www.w3.org/2000/svg">
<rect width="56" height="56" rx="28" fill="#1574E5"/>
<path d="M32.3479 19.3535C31.8449 19.2527 31.3999 19.1636 30.8526 19.4675C29.9761 19.9541 29.6783 20.9845 29.9852 21.9097C30.463 23.3503 32.5028 24.3701 33.4493 24.7749C33.7514 24.9041 34.0933 24.8539 34.3455 24.6434C35.136 23.9839 36.797 22.4213 36.841 20.9042C36.8693 19.9298 36.2882 19.0283 35.3089 18.8139C34.6973 18.68 34.2967 18.8931 33.8438 19.1341C33.6759 19.2235 33.5007 19.3167 33.305 19.3974C33.1896 19.445 33.0639 19.4634 32.9397 19.451C32.729 19.4299 32.5344 19.3909 32.3479 19.3535Z" fill="#F9FAFB"/>
<path d="M21 25H19C18.4477 25 18 25.4477 18 26V36C18 36.5523 18.4477 37 19 37H21C21.5523 37 22 36.5523 22 36V34.9999C22.4789 34.6806 23.5936 35.0211 24.9896 35.4475C27.0915 36.0895 29.8313 36.9264 32 35.9999C35.311 34.5855 39.2 31.1999 38 29.9999C37.3453 29.3452 35.8332 29.8336 34.129 30.3841C32.6422 30.8643 31.0092 31.3918 29.6718 31.2485C28.8776 31.1634 29.0477 30.2813 29.8189 30.0734C31.6989 29.5665 33.5006 28.8624 33.9316 28.1458C33.987 28.0537 34.0024 27.9449 33.9934 27.8378C33.9298 27.0839 33.4012 26.5328 32 26.9999C30.6505 27.4497 29.5226 27.1318 28.4434 26.8277C27.626 26.5973 26.8365 26.3748 26 26.4999C24.5879 26.7111 23.3955 27.1712 22.4542 27.7173C22.165 27.8851 22 28.1999 22 28.5343V26C22 25.4477 21.5523 25 21 25Z" fill="#F9FAFB"/>
</svg>

<svg xmlns="http://www.w3.org/2000/svg" width="56" height="56" fill="none"><rect width="56" height="56" fill="#1574E5" rx="28"/><path fill="#F9FAFB" d="M32.348 19.354c-.503-.101-.948-.19-1.495.114-.877.486-1.175 1.517-.868 2.442.478 1.44 2.518 2.46 3.464 2.865a.86.86 0 0 0 .897-.132c.79-.66 2.451-2.222 2.495-3.739.028-.974-.553-1.876-1.532-2.09-.612-.134-1.012.08-1.465.32-.168.09-.343.183-.539.263a.76.76 0 0 1-.365.054 6 6 0 0 1-.592-.098M21 25h-2a1 1 0 0 0-1 1v10a1 1 0 0 0 1 1h2a1 1 0 0 0 1-1v-1c.479-.32 1.594.021 2.99.447 2.102.642 4.841 1.48 7.01.553 3.311-1.414 7.2-4.8 6-6-.655-.655-2.167-.166-3.871.384-1.487.48-3.12 1.008-4.457.864-.794-.085-.624-.967.147-1.175 1.88-.506 3.682-1.21 4.113-1.927a.5.5 0 0 0 .061-.308c-.063-.754-.592-1.305-1.993-.838-1.35.45-2.477.132-3.557-.172-.817-.23-1.607-.453-2.443-.328a10 10 0 0 0-3.546 1.217.94.94 0 0 0-.454.817V26a1 1 0 0 0-1-1"/></svg>
